X: 24005
T: Log Driver's, The
R: waltz
M: 3/4
K: Gmajor
DD|D2 B2 G2|D4 DD|E2 c2 A2|E4 E2|D2 F2 A2|
d2 d2 d2|e2 d2 ^c2|d2 B2 BB|D2 B2 G2|D2 ^C2 D2|
E2 c2 A2|E4 EE|D2 d2 d2|d2 c2 A2|B2 G2 G2||
d2 e2 f2|g4 d2|B4 G2|c4 e2|e2 c3 c|B2 d2 d2|
d2 c2 B2|A4 A2|d2 e2 f2|g4 d2|B4 G2|c4 e2|
e2 c3 c|B2 d2 d2|d2 c2 B2|A4 d2|B2 G4||

